!!!id: EG044
!!!page: 64
!!!COM: Anonymous
!!!LYR: Anonymous
!!!PTL@@FR: Chansons Populaires du Canada
!!!OTL@@FR: Frit à l'huile
!!!PUB: G. E. Desbarats
!!!PDT: 1865
!!!AGN-Laforte:
!!!AGN-type:
!!!AGN-rime:
**kern	**text
*clefG2	*
*k[b-]	*
*F:	*
*M6/8	*
*	*v:1
*	*pline:1
8f	Mon
4f	pèr[e]
8a	à
=1	=1
4cc	fait
8cc	bâ-
4cc	-tir
8cc	mai-
=2	=2
(4cc	-son,
8b-)	.
*	*refrain
*	*italic
*	*pline:R1
4a	Ah!
8b-/	ah!
=3	=3
4.cc	ah!
4cc	frit
8cc	à
!!LO:PB:g=original
=4	=4
4.dd	l'hui-
4cc	-le
*	*Xitalic
*	*Xrefrain
*	*pline:2
8r	.
=5	=5
4r	.
8cc	L'a
4cc	fait
8cc	bâ-
=6	=6
4ff	tir
8cc	à
4cc	trois
8cc	pi-
=7	=7
4a	-gnons,
*>Refrain	*>Refrain
*	*italic
*	*pline:R2
8f	Fri-
8a	-tai-
8a	-ne,
8a	fri-
!!LO:PB:g=original
=8	=8
4g	-ton,
8f	fri-
4b-/	-ton,
8a	poë-
=9	=9
4g	-lon,
8r	.
*	*pline:R1r
4f	Ah!
8a	ah!
=10	=10
4.cc	ah!
4cc	frit
8cc	à
=11	=11
4dd	l'hui-
8cc	-le,
4a	frit
8a	au
!!LO:PB:g=original
=12	=12
4b-/	beurr[e]
8a	et
8gL	à
8fJ	.
8e	l'o-
=13	=13
[4.f	-gnon.
8f]	.
4r	.
=14	=14
1r	.
==	==
*-	*-
!!!EED-1: Samuel Boone
!!!EEV-1: 2026/05/05
